X:84
T:Love laughs at locksmiths
M:2/4
L:1/16
K:A
a4 e2c2 | f2d2 d2f2 | e2c2 dcBA | G2B2 B2g2 |
a4 e2c2 | f2d2 d2f2 | e2c2 B2e2 | c2A2 A4 :|
|:GABc d2B2 | ABcd e2c2 | d2f2 dcBA | G2B2 B2d2 |
c2e2 d2f2 | e2g2 a2c2 | dcBA G2e2 | c2A2 A4:|
%%newpage
%%vskip 1.5cm
